X:690
%%etbk:tnset id:520,pos:1,rep:3x,ant:
%%etbk:wsite https://thesession.org/tunes/3012
%%etbk:pldat 2016-09-13T17:05,2016-09-10T14:57,2016-09-07T17:23,2016-09-06T15:26,2016-09-04T13:38,2016-09-03T11:54,2016-08-21T11:19,2016-08-12T17:06,2016-08-10T16:57,2016-08-06T15:26,2016-08-04T18:18,2016-08-02T16:56,2016-07-15T16:48,2016-06-14T17:30,2016-05-10T19:38,2016-04-20T16:07,2016-04-12T17:13,2016-04-11T18:37,2016-03-23T17:40,2016-03-20T10:52,2016-02-13T15:22,2016-02-08T18:34,2016-01-26T18:03,2016-01-24T15:23,2016-01-20T17:36,2016-01-19T17:28,2016-01-17T14:14,2016-01-16T16:04,2016-01-12T17:34,2016-01-10T13:59,2016-01-04T19:29,2016-01-02T14:47,2015-12-31T15:18,2015-08-14T16:54,2015-08-14T16:44,2015-05-10T14:43,2015-04-27T18:53,2015-04-19T14:20,2015-04-12T11:52,2015-04-11T11:51
T: The Low Highland
Z: Piano Box Version by Martin Fleischmann
H: Created 2015-04-11 /  Last Modified 2015-04-21
R: strathspey
M: 4/4
L: 1/8
K: Ador
|:!1!A,2 A,2 !5!EA,B,!1!A,|!1!G,!2!B,!3!D!5!G !3!D<!1!G, B,!1!G,|!1!A,2 A,2 EA,B,A,|G,A, (3B,A,G, A,2 G,B,:|
!1!A!5!ba!3!g !2!edef|!4!g2 !5!g2 !3!d!5!g!2!B!1!G|!1!A!5!bag edef|!4!(3gfe !1!d!2!B !1!(3ABA !2!^G!4!B|
!1!A!5!bag edef|!4!g2 !4!g2 dgfg|!5!(3agf !4!ge !1!d!2!B!1!A!3!F|!4!(3GFE !1!D!2!B, !1!A,2 G,B,|


